Images/Github.svg

<?xml version="1.0" encoding="UTF-8"?>
<svg width="200px" height="196px" viewBox="0 0 200 196" version="1.1" xmlns="http://www.w3.org/2000/svg" xmlns:xlink="http://www.w3.org/1999/xlink">
    <!-- Generator: Sketch 43.1 (39012) - http://www.bohemiancoding.com/sketch -->
    <title>Github</title>
    <desc>Created with Sketch.</desc>
    <defs></defs>
    <g id="Page-1" stroke="none" stroke-width="1" fill="none" fill-rule="evenodd">
        <g id="Github" fill-rule="nonzero" fill="#000000">
            <path d="M99.99375,0 C44.775,0 0,44.76875 0,100.00625 C0,144.18125 28.65,181.6625 68.39375,194.8875 C73.39375,195.80625 75.21875,192.71875 75.21875,190.06875 C75.21875,187.69375 75.13125,181.40625 75.08125,173.0625 C47.2625,179.10625 41.39375,159.65625 41.39375,159.65625 C36.85,148.10625 30.29375,145.03125 30.29375,145.03125 C21.2125,138.825 30.98125,138.95 30.98125,138.95 C41.0125,139.65625 46.29375,149.25625 46.29375,149.25625 C55.21875,164.5375 69.7,160.125 75.4,157.5625 C76.30625,151.1 78.89375,146.69375 81.75,144.19375 C59.54375,141.66875 36.2,133.09375 36.2,94.775 C36.2,83.85625 40.09375,74.93125 46.49375,67.9375 C45.4625,65.40625 42.03125,55.24375 47.46875,41.475 C47.46875,41.475 55.86875,38.7875 74.96875,51.725 C82.95,49.50625 91.5,48.4 100.00625,48.35625 C108.5,48.4 117.05625,49.50625 125.04375,51.725 C144.13125,38.7875 152.5125,41.475 152.5125,41.475 C157.96875,55.24375 154.5375,65.40625 153.50625,67.9375 C159.91875,74.93125 163.7875,83.85625 163.7875,94.775 C163.7875,133.1875 140.40625,141.64375 118.13125,144.11875 C121.71875,147.20625 124.91875,153.30625 124.91875,162.6375 C124.91875,176.00625 124.79375,186.7875 124.79375,190.06875 C124.79375,192.74375 126.59375,195.85625 131.66875,194.875 C171.375,181.625 200,144.16875 200,100.00625 C200,44.76875 155.225,0 99.99375,0" id="Fill-34"></path>
        </g>
    </g>
</svg>

<svg width="200" height="196" xmlns="http://www.w3.org/2000/svg"><path d="M99.994 0C44.775 0 0 44.769 0 100.006c0 44.175 28.65 81.656 68.394 94.881 5 .92 6.825-2.168 6.825-4.818 0-2.375-.088-8.663-.138-17.006-27.819 6.043-33.687-13.407-33.687-13.407-4.544-11.55-11.1-14.625-11.1-14.625-9.082-6.206.687-6.081.687-6.081 10.032.706 15.313 10.306 15.313 10.306 8.925 15.281 23.406 10.869 29.106 8.306.906-6.462 3.494-10.868 6.35-13.368-22.206-2.525-45.55-11.1-45.55-49.419 0-10.919 3.894-19.844 10.294-26.838-1.032-2.53-4.463-12.693.975-26.462 0 0 8.4-2.688 27.5 10.25 7.981-2.219 16.531-3.325 25.037-3.369 8.494.044 17.05 1.15 25.038 3.369 19.087-12.938 27.468-10.25 27.468-10.25 5.457 13.769 2.025 23.931.994 26.462 6.413 6.994 10.281 15.92 10.281 26.838 0 38.412-23.38 46.869-45.656 49.344 3.588 3.087 6.788 9.187 6.788 18.518 0 13.37-.125 24.15-.125 27.432 0 2.675 1.8 5.787 6.875 4.806C171.375 181.625 200 144.169 200 100.006 200 44.77 155.225 0 99.994 0" fill-rule="nonzero" fill="#000"/></svg>
